X:6
T:Constant Billy
M:6/8
S:Bacon (MDT)
A:Bampton
O:English
R:Jig
P:A(AB2)4
K:G %Transposed from Bb
P:A
D | G2d B>GB | c2A A>GA | B>AG E>FG | DEF G2 :|
P:B
z | B>cd e>fg | A>Bc dBG | B>cd d>fg | A>Bc d3 |
G2d B>GB | c2A A>GA | B>AG E>FG | D>EF G2 |]
